X:8
T:James Gannon's
R:barndance
Z:id:hn-barndance-8
M:C|
L:1/8
K:G
B2AB e2dB | d2cA E2FG | AGAB cAFA | GABG D2B,2 |
B2AB e2dB | d2cA E2FG | AGAB cAFA |1 G2B2 G4 :|2 G2g2 g2gf ||
|: e^def gfga | b2d2 d3B | cBAB cdef | g2B2 d2gf | 
e^def gfga | b2d2 d3B | cBAB cAFA |1 G2g2 g2gf :|2 G2B2 G4 ||
<end>
<start>
